F[BALLADE
CUT[Graf und Nonne (Die Nonne)
    Du hast gesagt, du nehmest mich]
CNR[und wenn der Sommer kommt,]
REG[Osteuropa, Ungarn, Tata, Tarjan]
SRC[8, S. 107
    1983 aufgezeichnet]
KEY[Q0155q 16  F 2/4]
MEL[-5_  1_1_-7_-6_  -6_1_-5_
    -5_  1_1_2_2_  3__0_
    -5_  3_.33_5_  5__4_
    3_  2_.1-7_-6_  -5_4_3_
    2_  5_4_4_4_  3__0_ //] >>
FCT[Ballade, Standesunterschied, vergebliche Werbung, Liebe, Klage, Tod]
